assets/help.svg

<?xml version="1.0" encoding="utf-8"?>
<!-- Generator: Adobe Illustrator 18.0.0, SVG Export Plug-In . SVG Version: 6.00 Build 0)  -->
<!DOCTYPE svg PUBLIC "-//W3C//DTD SVG 1.1//EN" "http://www.w3.org/Graphics/SVG/1.1/DTD/svg11.dtd">
<svg version="1.1" id="Layer_1" xmlns="http://www.w3.org/2000/svg" xmlns:xlink="http://www.w3.org/1999/xlink" x="0px" y="0px"
	 viewBox="0 0 18 18" enable-background="new 0 0 18 18" xml:space="preserve">
<g>
	<defs>
		<rect id="SVGID_1_" width="18" height="18"/>
	</defs>
	<clipPath id="SVGID_2_">
		<use xlink:href="#SVGID_1_"  overflow="visible"/>
	</clipPath>
	<path clip-path="url(#SVGID_2_)" fill="#FFFFFF" d="M6.3,2.9C6.9,2.5,8,2.1,9,2.1c1.5,0,2.3,0.5,3,1.2c0.7,0.7,1,1.4,1,2.4
		c0,0.9-0.3,1.3-0.6,1.8c-0.2,0.3-0.6,0.6-1.1,1.1l-0.5,0.4c-0.3,0.3-0.5,0.5-0.6,0.8C10,10,10,10.3,10,10.7H8c0-1,0-1.4,0.1-1.8
		c0.1-0.4,0.5-0.7,1.1-1.2l0.6-0.4c0.2-0.1,0.5-0.4,0.6-0.6c0.2-0.3,0.3-0.7,0.4-1c0-0.3-0.1-0.7-0.3-1C10,4.2,9.6,4,8.9,4
		C8.3,4,7.8,4.3,7.5,4.6C7.2,5,7.1,5.5,7,6h-2C5.1,4.5,5.4,3.7,6.3,2.9"/>
	<path clip-path="url(#SVGID_2_)" fill="none" stroke="#FFFFFF" stroke-width="2" d="M6.3,2.9C6.9,2.5,8,2.1,9,2.1
		c1.5,0,2.3,0.5,3,1.2c0.7,0.7,1,1.4,1,2.4c0,0.9-0.3,1.3-0.6,1.8c-0.2,0.3-0.6,0.6-1.1,1.1l-0.5,0.4c-0.3,0.3-0.5,0.5-0.6,0.8
		C10,10,10,10.3,10,10.7H8c0-1,0-1.4,0.1-1.8c0.1-0.4,0.5-0.7,1.1-1.2l0.6-0.4c0.2-0.1,0.5-0.4,0.6-0.6c0.2-0.3,0.3-0.7,0.4-1
		c0-0.3-0.1-0.7-0.3-1C10,4.2,9.6,4,8.9,4C8.3,4,7.8,4.3,7.5,4.6C7.2,5,7.1,5.5,7,6h-2C5.1,4.5,5.4,3.7,6.3,2.9z"/>
	<rect x="7.8" y="11.9" clip-path="url(#SVGID_2_)" fill="#FFFFFF" width="2.5" height="2.4"/>
	<rect x="7.8" y="11.9" clip-path="url(#SVGID_2_)" fill="none" stroke="#FFFFFF" stroke-width="1.5" width="2.5" height="2.4"/>
	<path clip-path="url(#SVGID_2_)" d="M6.5,2.9c0.7-0.4,1.3-0.8,2.4-0.8c1.6,0,2,0.2,2.8,0.9C12.5,3.6,13,4.4,13,5.5
		c0,0.7-0.4,1.4-0.7,1.9c-0.2,0.3-0.5,0.6-1,1l-0.6,0.5C10.3,9.1,10,9.4,9.9,9.7c-0.1,0.2-0.1,0.6-0.1,1H8c0-0.9,0-1.6,0.2-1.9
		c0.1-0.3,0.5-0.7,1-1.2l0.5-0.4c0.2-0.1,0.5-0.4,0.6-0.5c0.2-0.3,0.4-0.7,0.4-1c0-0.4,0-0.7-0.2-1C10.3,4.3,10,3.9,8.9,3.9
		C8,3.8,7.6,4.3,7.3,4.7C7.1,5.1,7,5.6,7,6H5C5.1,4.5,5.5,3.5,6.5,2.9"/>
	<rect x="8" y="12" clip-path="url(#SVGID_2_)" width="2" height="2"/>
</g>
</svg>

<?xml version="1.0" encoding="UTF-8" standalone="no"?>
<!-- Generator: Adobe Illustrator 18.0.0, SVG Export Plug-In . SVG Version: 6.00 Build 0)  -->

<svg
   version="1.1"
   id="Layer_1"
   x="0px"
   y="0px"
   viewBox="0 0 18 18"
   enable-background="new 0 0 18 18"
   xml:space="preserve"
   sodipodi:docname="help.svg"
   inkscape:version="1.2.2 (732a01da63, 2022-12-09)"
   xmlns:inkscape="http://www.inkscape.org/namespaces/inkscape"
   xmlns:sodipodi="http://sodipodi.sourceforge.net/DTD/sodipodi-0.dtd"
   xmlns:xlink="http://www.w3.org/1999/xlink"
   xmlns="http://www.w3.org/2000/svg"
   xmlns:svg="http://www.w3.org/2000/svg"><defs
   id="defs25" /><sodipodi:namedview
   id="namedview23"
   pagecolor="#505050"
   bordercolor="#ffffff"
   borderopacity="1"
   inkscape:showpageshadow="0"
   inkscape:pageopacity="0"
   inkscape:pagecheckerboard="1"
   inkscape:deskcolor="#505050"
   showgrid="false"
   inkscape:zoom="29.722222"
   inkscape:cx="8.9831776"
   inkscape:cy="6.3588785"
   inkscape:window-width="1366"
   inkscape:window-height="715"
   inkscape:window-x="-8"
   inkscape:window-y="-8"
   inkscape:window-maximized="1"
   inkscape:current-layer="Layer_1" />
<g
   id="g20"
   transform="translate(-3.9311136,-1.1)">
	<defs
   id="defs3">
		<rect
   id="SVGID_1_"
   width="18"
   height="18"
   x="0"
   y="0" />
	</defs>
	<clipPath
   id="SVGID_2_">
		<use
   xlink:href="#SVGID_1_"
   overflow="visible"
   id="use5" />
	</clipPath>
	<path
   clip-path="url(#SVGID_2_)"
   fill="#ffffff"
   d="M 6.3,2.9 C 6.9,2.5 8,2.1 9,2.1 c 1.5,0 2.3,0.5 3,1.2 0.7,0.7 1,1.4 1,2.4 0,0.9 -0.3,1.3 -0.6,1.8 -0.2,0.3 -0.6,0.6 -1.1,1.1 L 10.8,9 C 10.5,9.3 10.3,9.5 10.2,9.8 10,10 10,10.3 10,10.7 H 8 C 8,9.7 8,9.3 8.1,8.9 8.2,8.5 8.6,8.2 9.2,7.7 L 9.8,7.3 C 10,7.2 10.3,6.9 10.4,6.7 10.6,6.4 10.7,6 10.8,5.7 10.8,5.4 10.7,5 10.5,4.7 10,4.2 9.6,4 8.9,4 8.3,4 7.8,4.3 7.5,4.6 7.2,5 7.1,5.5 7,6 H 5 C 5.1,4.5 5.4,3.7 6.3,2.9"
   id="path8" />
	<path
   clip-path="url(#SVGID_2_)"
   fill="none"
   stroke="#ffffff"
   stroke-width="2"
   d="M 6.3,2.9 C 6.9,2.5 8,2.1 9,2.1 c 1.5,0 2.3,0.5 3,1.2 0.7,0.7 1,1.4 1,2.4 0,0.9 -0.3,1.3 -0.6,1.8 -0.2,0.3 -0.6,0.6 -1.1,1.1 L 10.8,9 C 10.5,9.3 10.3,9.5 10.2,9.8 10,10 10,10.3 10,10.7 H 8 C 8,9.7 8,9.3 8.1,8.9 8.2,8.5 8.6,8.2 9.2,7.7 L 9.8,7.3 C 10,7.2 10.3,6.9 10.4,6.7 10.6,6.4 10.7,6 10.8,5.7 10.8,5.4 10.7,5 10.5,4.7 10,4.2 9.6,4 8.9,4 8.3,4 7.8,4.3 7.5,4.6 7.2,5 7.1,5.5 7,6 H 5 C 5.1,4.5 5.4,3.7 6.3,2.9 Z"
   id="path10" />
	<rect
   x="7.8000002"
   y="11.9"
   clip-path="url(#SVGID_2_)"
   fill="#ffffff"
   width="2.5"
   height="2.4000001"
   id="rect12" />
	<rect
   x="7.8000002"
   y="11.9"
   clip-path="url(#SVGID_2_)"
   fill="none"
   stroke="#ffffff"
   stroke-width="1.5"
   width="2.5"
   height="2.4000001"
   id="rect14" />
	<path
   clip-path="url(#SVGID_2_)"
   d="M 6.5,2.9 C 7.2,2.5 7.8,2.1 8.9,2.1 c 1.6,0 2,0.2 2.8,0.9 0.8,0.6 1.3,1.4 1.3,2.5 0,0.7 -0.4,1.4 -0.7,1.9 -0.2,0.3 -0.5,0.6 -1,1 L 10.7,8.9 C 10.3,9.1 10,9.4 9.9,9.7 9.8,9.9 9.8,10.3 9.8,10.7 H 8 C 8,9.8 8,9.1 8.2,8.8 8.3,8.5 8.7,8.1 9.2,7.6 L 9.7,7.2 C 9.9,7.1 10.2,6.8 10.3,6.7 10.5,6.4 10.7,6 10.7,5.7 10.7,5.3 10.7,5 10.5,4.7 10.3,4.3 10,3.9 8.9,3.9 8,3.8 7.6,4.3 7.3,4.7 7.1,5.1 7,5.6 7,6 H 5 C 5.1,4.5 5.5,3.5 6.5,2.9"
   id="path16" />
	<rect
   x="8"
   y="12"
   clip-path="url(#SVGID_2_)"
   width="2"
   height="2"
   id="rect18" />
</g>
</svg>
